src/assets/catalogSvg/kitchen.svg

<svg version="1.1" viewBox="0 0 20 20" xmlns="http://www.w3.org/2000/svg">
 <path d="m0.625 7.5c-0.09352 4e-5 -0.1858 0.02106-0.2702 0.06152s-0.1585 0.09933-0.217 0.1723c-0.05854 0.07294-0.09996 0.1581-0.1212 0.2492-0.02126 0.09107-0.02181 0.1858-0.001607 0.2771l2.065 9.292c0.1541 0.6941 0.5403 1.315 1.095 1.76s1.244 0.6875 1.955 0.6877h7.24c0.711-2e-4 1.401-0.2427 1.955-0.6877 0.5546-0.445 0.9408-1.066 1.095-1.76l0.1637-0.7375c0.9562 0.1788 1.944-0.0209 2.756-0.5569 0.8117-0.5361 1.383-1.367 1.594-2.316s0.0445-1.944-0.464-2.773c-0.5085-0.8292-1.319-1.428-2.261-1.671l0.2763-1.238c0.0202-0.09131 0.0197-0.186-0.0016-0.2771s-0.0627-0.1762-0.1212-0.2492c-0.0586-0.07293-0.1327-0.1318-0.217-0.1723-0.0844-0.04046-0.1767-0.06148-0.2702-0.06152zm15.63 8.125c-0.1323 1e-4 -0.2644-0.0104-0.395-0.0312l1.084-4.873c0.5782 0.1675 1.076 0.5378 1.404 1.043 0.3271 0.5052 0.4612 1.111 0.3774 1.708-0.0837 0.596-0.3795 1.142-0.8332 1.537-0.4536 0.3955-1.035 0.6142-1.637 0.6159zm-12.95 1.656-1.896-8.531h14.69l-1.896 8.531c-0.0924 0.4165-0.3241 0.789-0.6568 1.056-0.3328 0.267-0.7466 0.4126-1.173 0.4127h-7.24c-0.4266-1e-4 -0.8404-0.1457-1.173-0.4127-0.3327-0.2671-0.5644-0.6396-0.6568-1.056z" clip-rule="evenodd" fill="#101828" fill-rule="evenodd"/>
 <path d="m5.5 1-0.00375 0.004999-0.0175 0.02375c-0.09095 0.1252-0.176 0.2545-0.255 0.3875-0.06708 0.1066-0.126 0.2182-0.1762 0.3338-0.0325 0.075-0.0425 0.115-0.04625 0.1288v5e-3c0.01442 0.1105 0.05327 0.2164 0.1138 0.31 0.09375 0.1662 0.2225 0.34 0.385 0.5562l0.0125 0.015c0.1475 0.1975 0.325 0.4338 0.4625 0.6788 0.14 0.25 0.275 0.5688 0.275 0.9312 0 0.235-0.08125 0.46-0.1488 0.6175-0.07225 0.1676-0.1566 0.3297-0.2525 0.485-0.09806 0.1639-0.2036 0.3232-0.3162 0.4775l-0.0225 0.03125-0.00625 0.01-0.0025 0.0025c-0.09929 0.1328-0.2473 0.2207-0.4114 0.2443-0.1641 0.02368-0.3309-0.0188-0.4636-0.1181s-0.2207-0.2473-0.2443-0.4114c-0.02368-0.1641 0.0188-0.3309 0.1181-0.4636l0.00375-5e-3 0.0175-0.02375c0.09095-0.1252 0.176-0.2545 0.255-0.3875 0.06708-0.1066 0.126-0.2182 0.1762-0.3338 0.0325-0.075 0.0425-0.115 0.04625-0.1288-0.01331-0.1121-0.05177-0.2198-0.1125-0.315-0.116-0.1939-0.2451-0.3798-0.3862-0.5562l-0.0125-0.015c-0.1689-0.2159-0.3234-0.4426-0.4625-0.6788-0.1702-0.2816-0.265-0.6023-0.275-0.9312 0-0.235 0.08125-0.46 0.1488-0.6175 0.07375-0.1725 0.1675-0.3425 0.2525-0.485 0.0993-0.1631 0.2048-0.3224 0.3162-0.4775l0.03125-0.04375c0.09929-0.1328 0.2473-0.2207 0.4114-0.2443 0.1641-0.02368 0.3309 0.0188 0.4636 0.1181 0.1328 0.09929 0.2207 0.2473 0.2443 0.4114 0.02368 0.1641-0.0188 0.3309-0.1181 0.4636zm3.75 0-0.00375 0.004999-0.0175 0.02375c-0.09095 0.1252-0.176 0.2545-0.255 0.3875-0.06708 0.1066-0.126 0.2182-0.1762 0.3338-0.0325 0.075-0.0425 0.115-0.04625 0.1288v5e-3c0.01442 0.1105 0.05327 0.2164 0.1138 0.31 0.09375 0.1662 0.2225 0.34 0.385 0.5562l0.0125 0.015c0.1475 0.1975 0.325 0.4338 0.4625 0.6788 0.14 0.25 0.275 0.5688 0.275 0.9312 0 0.235-0.08125 0.46-0.1488 0.6175-0.07225 0.1676-0.1566 0.3297-0.2525 0.485-0.09806 0.1639-0.2036 0.3232-0.3162 0.4775l-0.0225 0.03125-0.00625 0.01-0.0025 0.0025c-0.09929 0.1328-0.2473 0.2207-0.4114 0.2443-0.1641 0.02368-0.3309-0.0188-0.4636-0.1181s-0.2207-0.2473-0.2443-0.4114c-0.02368-0.1641 0.0188-0.3309 0.1181-0.4636l0.00375-5e-3 0.0175-0.02375c0.09095-0.1252 0.176-0.2545 0.255-0.3875 0.06708-0.1066 0.126-0.2182 0.1762-0.3338 0.0325-0.075 0.0425-0.115 0.04625-0.1288-0.01331-0.1121-0.05177-0.2198-0.1125-0.315-0.116-0.1939-0.2451-0.3798-0.3862-0.5562l-0.0125-0.015c-0.1689-0.2159-0.3234-0.4426-0.4625-0.6788-0.1702-0.2816-0.265-0.6023-0.275-0.9312 0-0.235 0.08125-0.46 0.1488-0.6175 0.07375-0.1725 0.1675-0.3425 0.2525-0.485 0.0993-0.1631 0.2048-0.3224 0.3162-0.4775l0.03125-0.04375c0.09929-0.1328 0.2473-0.2207 0.4114-0.2443 0.1641-0.02368 0.3309 0.0188 0.4636 0.1181 0.1328 0.09929 0.2207 0.2473 0.2443 0.4114 0.02368 0.1641-0.0188 0.3309-0.1181 0.4636zm3.75 0-0.0037 0.004999-0.0175 0.02375c-0.091 0.1252-0.1761 0.2545-0.255 0.3875-0.0671 0.1066-0.126 0.2182-0.1763 0.3338-0.0325 0.075-0.0425 0.115-0.0462 0.1288v5e-3c0.0144 0.1105 0.0532 0.2164 0.1137 0.31 0.0937 0.1662 0.2225 0.34 0.385 0.5562l0.0125 0.015c0.1475 0.1975 0.325 0.4338 0.4625 0.6788 0.14 0.25 0.275 0.5688 0.275 0.9312 0 0.235-0.0813 0.46-0.1488 0.6175-0.0722 0.1676-0.1566 0.3297-0.2524 0.485-0.0977 0.1639-0.2028 0.3232-0.315 0.4775l-0.0238 0.03125-0.0063 0.01-0.0024 0.0025c-0.0993 0.1328-0.2473 0.2207-0.4114 0.2443-0.1641 0.02368-0.3309-0.0188-0.4636-0.1181-0.1328-0.09929-0.2207-0.2473-0.2444-0.4114-0.0237-0.1641 0.0188-0.3309 0.1181-0.4636l0.0037-5e-3 0.0175-0.02375c0.091-0.1252 0.1761-0.2545 0.255-0.3875 0.0671-0.1066 0.126-0.2182 0.1763-0.3338 0.0325-0.075 0.0425-0.115 0.0462-0.1288-0.0133-0.1121-0.0517-0.2198-0.1124-0.315-0.1161-0.1939-0.2451-0.3798-0.3863-0.5562l-0.0125-0.015c-0.1689-0.2159-0.3234-0.4426-0.4625-0.6788-0.1703-0.2816-0.265-0.6023-0.275-0.9312 0-0.235 0.0813-0.46 0.1488-0.6175 0.0737-0.1725 0.1675-0.3425 0.2524-0.485 0.0993-0.1631 0.2048-0.3224 0.3163-0.4775l0.0312-0.04375c0.0993-0.1328 0.2473-0.2207 0.4114-0.2443 0.1641-0.02368 0.3309 0.0188 0.4636 0.1181 0.1328 0.09929 0.2207 0.2473 0.2444 0.4114 0.0237 0.1641-0.0188 0.3309-0.1181 0.4636z" fill="#101828"/>
</svg>

<svg width="20" height="20" viewBox="0 0 20 20" fill="none" xmlns="http://www.w3.org/2000/svg">
<g clip-path="url(#clip0_12186_524)">
<path fill-rule="evenodd" clip-rule="evenodd" d="M0.624998 7.5C0.531477 7.50004 0.439157 7.52106 0.354842 7.56152C0.270527 7.60198 0.196366 7.66085 0.137827 7.73378C0.0792885 7.80672 0.0378632 7.89186 0.016605 7.98293C-0.00465315 8.074 -0.00520222 8.16869 0.0149983 8.26L2.08 17.5525C2.23414 18.2466 2.62034 18.8673 3.17485 19.3123C3.72936 19.7573 4.41903 19.9998 5.13 20H12.37C13.081 19.9998 13.7706 19.7573 14.3251 19.3123C14.8797 18.8673 15.2659 18.2466 15.42 17.5525L15.5837 16.815C16.5399 16.9938 17.5281 16.7941 18.3398 16.2581C19.1515 15.722 19.7231 14.8915 19.934 13.9419C20.1449 12.9923 19.9785 11.9979 19.47 11.1686C18.9615 10.3394 18.1507 9.74018 17.2087 9.4975L17.485 8.26C17.5052 8.16869 17.5047 8.074 17.4834 7.98293C17.4621 7.89186 17.4207 7.80672 17.3622 7.73378C17.3036 7.66085 17.2295 7.60198 17.1452 7.56152C17.0608 7.52106 16.9685 7.50004 16.875 7.5H0.624998ZM16.25 15.625C16.1177 15.6251 15.9856 15.6146 15.855 15.5938L16.9387 10.7212C17.5169 10.8887 18.0152 11.259 18.3424 11.7642C18.6695 12.2694 18.8036 12.8756 18.7198 13.4717C18.6361 14.0677 18.3403 14.6135 17.8866 15.0091C17.433 15.4046 16.8519 15.6233 16.25 15.625ZM3.3 17.2812L1.40375 8.75H16.0962L14.2 17.2812C14.1076 17.6977 13.8759 18.0702 13.5432 18.3373C13.2104 18.6043 12.7966 18.7499 12.37 18.75H5.13C4.70338 18.7499 4.28955 18.6043 3.95684 18.3373C3.62413 18.0702 3.39243 17.6977 3.3 17.2812Z" fill="#101828"/>
<path d="M5.5 0.999991L5.49625 1.00499L5.47875 1.02874C5.3878 1.15389 5.30271 1.2832 5.22375 1.41624C5.15667 1.52289 5.09776 1.63446 5.0475 1.74999C5.015 1.82499 5.005 1.86499 5.00125 1.87874V1.88374C5.01567 1.99424 5.05452 2.10014 5.115 2.19374C5.20875 2.35999 5.3375 2.53374 5.5 2.74999L5.5125 2.76499C5.66 2.96249 5.8375 3.19874 5.975 3.44374C6.115 3.69374 6.25 4.01249 6.25 4.37499C6.25 4.60999 6.16875 4.83499 6.10125 4.99249C6.029 5.16009 5.94461 5.32218 5.84875 5.47749C5.75069 5.64141 5.64516 5.80074 5.5325 5.95499L5.51 5.98624L5.50375 5.99624L5.50125 5.99874C5.40196 6.13152 5.25399 6.21941 5.0899 6.24308C4.9258 6.26676 4.75902 6.22428 4.62625 6.12499C4.49348 6.0257 4.40558 5.87773 4.38191 5.71364C4.35823 5.54954 4.40071 5.38276 4.5 5.24999L4.50375 5.24499L4.52125 5.22124C4.6122 5.09609 4.69729 4.96678 4.77625 4.83374C4.84333 4.72709 4.90224 4.61552 4.9525 4.49999C4.985 4.42499 4.995 4.38499 4.99875 4.37124C4.98544 4.25911 4.94698 4.15143 4.88625 4.05624C4.77022 3.86231 4.64117 3.67647 4.5 3.49999L4.4875 3.48499C4.31862 3.26913 4.16412 3.04239 4.025 2.80624C3.85475 2.52465 3.76003 2.2039 3.75 1.87499C3.75 1.63999 3.83125 1.41499 3.89875 1.25749C3.9725 1.08499 4.06625 0.914991 4.15125 0.772491C4.25055 0.609356 4.35604 0.450074 4.4675 0.294991L4.49875 0.251241C4.59804 0.118467 4.74601 0.0305745 4.9101 0.00689803C5.0742 -0.0167784 5.24098 0.025701 5.37375 0.124991C5.50652 0.224282 5.59442 0.37225 5.61809 0.536344C5.64177 0.700439 5.59929 0.867217 5.5 0.999991ZM9.25 0.999991L9.24625 1.00499L9.22875 1.02874C9.1378 1.15389 9.05271 1.2832 8.97375 1.41624C8.90667 1.52289 8.84776 1.63446 8.7975 1.74999C8.765 1.82499 8.755 1.86499 8.75125 1.87874V1.88374C8.76567 1.99424 8.80452 2.10014 8.865 2.19374C8.95875 2.35999 9.0875 2.53374 9.25 2.74999L9.2625 2.76499C9.41 2.96249 9.5875 3.19874 9.725 3.44374C9.865 3.69374 10 4.01249 10 4.37499C10 4.60999 9.91875 4.83499 9.85125 4.99249C9.779 5.16009 9.69461 5.32218 9.59875 5.47749C9.50069 5.64141 9.39516 5.80074 9.2825 5.95499L9.26 5.98624L9.25375 5.99624L9.25125 5.99874C9.15196 6.13152 9.00399 6.21941 8.8399 6.24308C8.6758 6.26676 8.50902 6.22428 8.37625 6.12499C8.24348 6.0257 8.15558 5.87773 8.13191 5.71364C8.10823 5.54954 8.15071 5.38276 8.25 5.24999L8.25375 5.24499L8.27125 5.22124C8.3622 5.09609 8.44729 4.96678 8.52625 4.83374C8.59333 4.72709 8.65224 4.61552 8.7025 4.49999C8.735 4.42499 8.745 4.38499 8.74875 4.37124C8.73544 4.25911 8.69698 4.15143 8.63625 4.05624C8.52022 3.86231 8.39117 3.67647 8.25 3.49999L8.2375 3.48499C8.06862 3.26913 7.91412 3.04239 7.775 2.80624C7.60475 2.52465 7.51003 2.2039 7.5 1.87499C7.5 1.63999 7.58125 1.41499 7.64875 1.25749C7.7225 1.08499 7.81625 0.914991 7.90125 0.772491C8.00055 0.609356 8.10604 0.450074 8.2175 0.294991L8.24875 0.251241C8.34804 0.118467 8.49601 0.0305745 8.6601 0.00689803C8.8242 -0.0167784 8.99098 0.025701 9.12375 0.124991C9.25652 0.224282 9.34442 0.37225 9.36809 0.536344C9.39177 0.700439 9.34929 0.867217 9.25 0.999991ZM13 0.999991L12.9963 1.00499L12.9788 1.02874C12.8878 1.15389 12.8027 1.2832 12.7238 1.41624C12.6567 1.52289 12.5978 1.63446 12.5475 1.74999C12.515 1.82499 12.505 1.86499 12.5013 1.87874V1.88374C12.5157 1.99424 12.5545 2.10014 12.615 2.19374C12.7087 2.35999 12.8375 2.53374 13 2.74999L13.0125 2.76499C13.16 2.96249 13.3375 3.19874 13.475 3.44374C13.615 3.69374 13.75 4.01249 13.75 4.37499C13.75 4.60999 13.6687 4.83499 13.6012 4.99249C13.529 5.16009 13.4446 5.32218 13.3488 5.47749C13.2511 5.64138 13.146 5.80072 13.0338 5.95499L13.01 5.98624L13.0037 5.99624L13.0013 5.99874C12.902 6.13152 12.754 6.21941 12.5899 6.24308C12.4258 6.26676 12.259 6.22428 12.1263 6.12499C11.9935 6.0257 11.9056 5.87773 11.8819 5.71364C11.8582 5.54954 11.9007 5.38276 12 5.24999L12.0037 5.24499L12.0212 5.22124C12.1122 5.09609 12.1973 4.96678 12.2762 4.83374C12.3433 4.72709 12.4022 4.61552 12.4525 4.49999C12.485 4.42499 12.495 4.38499 12.4987 4.37124C12.4854 4.25911 12.447 4.15143 12.3863 4.05624C12.2702 3.86231 12.1412 3.67647 12 3.49999L11.9875 3.48499C11.8186 3.26913 11.6641 3.04239 11.525 2.80624C11.3547 2.52465 11.26 2.2039 11.25 1.87499C11.25 1.63999 11.3313 1.41499 11.3988 1.25749C11.4725 1.08499 11.5663 0.914991 11.6512 0.772491C11.7505 0.609356 11.856 0.450074 11.9675 0.294991L11.9987 0.251241C12.098 0.118467 12.246 0.0305745 12.4101 0.00689803C12.5742 -0.0167784 12.741 0.025701 12.8737 0.124991C13.0065 0.224282 13.0944 0.37225 13.1181 0.536344C13.1418 0.700439 13.0993 0.867217 13 0.999991Z" fill="#101828"/>
</g>
<defs>
<clipPath id="clip0_12186_524">
<rect width="20" height="20" fill="white"/>
</clipPath>
</defs>
</svg>
